X: 23
T: Hampton Waltz.
%C: Mr. Gray
%R: waltz
B: Mr. Gray "24 Country Dances for the Year 1805" p.12 #1
S: http://folkopedia.efdss.org/images/9/92/ThompsGray_24_1805.PDF  2013-12-2
Z: 2013 John Chambers <jc:trillian.mit.edu>
M: 3/8
L: 1/8
K: C
|:\
GEG | cGe | dGG | G3 |\
fda | gec | fe^f | g3 :|
|:\
geg | fdf | ege | dBG |\
AAA | f2 (d/c/) | BGB | c3 :|
% - - - - - - - - - - - - - - - - - - - - - - - - -
%%begintext align
%% 1st & 2d Cu: hands across back again, lead
%% down the mid: up again, Allemande right
%% & left.
%%endtext

%%sep 1 1 500
%%sep 1 1 500
